logos/udemy-icon.svg

<?xml version="1.0" encoding="UTF-8"?>
<svg width="256px" height="497px" viewBox="0 0 256 497" version="1.1" xmlns="http://www.w3.org/2000/svg" xmlns:xlink="http://www.w3.org/1999/xlink" preserveAspectRatio="xMidYMid">
    <title>udemy</title>
    <g>
        <polygon fill="#A435F0" points="255.981781 147.795317 127.972671 73.8976585 0 147.795317 0 73.8976585 127.99089 0 256 73.8976585 256 147.795317"></polygon>
        <path d="M0,209.850402 L67.0471853,209.850402 L67.0471853,372.749555 C67.0471853,414.836239 98.4755533,435.351221 127.99089,435.351221 C157.761298,435.351221 188.952815,414.289659 188.952815,372.184756 L188.952815,209.850402 L256,209.850402 L256,376.630275 C256,415.401039 243.811259,445.317202 219.433777,465.832183 C195.038076,486.328945 164.575333,496.313145 127.426091,496.313145 C90.3132873,496.313145 59.8323251,486.347164 36.0196427,465.832183 C12.188741,445.335421 0,416.530638 0,378.288236 L0,209.850402 Z" fill="#000000"></path>
    </g>
</svg>

<svg width="256" height="497" xmlns="http://www.w3.org/2000/svg" preserveAspectRatio="xMidYMid">
	<path fill="#A435F0" d="m255.982 147.795-128.01-73.897L0 147.795V73.898L127.99 0 256 73.898v73.897z"/>
	<path d="M0 209.85h67.047v162.9c0 42.086 31.429 62.601 60.944 62.601 29.77 0 60.962-21.061 60.962-63.166V209.85H256v166.78c0 38.771-12.189 68.687-36.566 89.202-24.396 20.497-54.859 30.481-92.008 30.481-37.113 0-67.594-9.966-91.406-30.48C12.189 445.334 0 416.53 0 378.287V209.85Z"/>
</svg>
